svgs/k9.svg

<svg width="24" height="24" viewBox="0 0 24 24" fill="none" xmlns="http://www.w3.org/2000/svg">
<path fill-rule="evenodd" clip-rule="evenodd" d="M6.5263 2.66667C6.5263 2.29733 6.80798 2 7.15787 2H9.68407C9.84808 2 9.99721 2.06533 10.1093 2.17279C10.1167 2.17995 10.124 2.1873 10.1312 2.19483C10.2454 2.31533 10.3159 2.482 10.3159 2.66667V3.55556L10.3157 3.56795V4C10.3157 4.36933 10.0341 4.66667 9.68417 4.66667H9.47375V5.11111H14.5262V4.66667H14.3157C13.9658 4.66667 13.6841 4.36933 13.6841 4V2.66667C13.6841 2.29733 13.9658 2 14.3157 2H16.8419C16.995 2 17.1351 2.05691 17.2442 2.15186C17.2598 2.16543 17.2747 2.17977 17.289 2.19483C17.4032 2.31533 17.4737 2.482 17.4737 2.66667V3.55556L17.4736 3.56795V4C17.4736 4.36933 17.1919 4.66667 16.842 4.66667H15.3685V5.11111H18.7366C19.0428 5.11111 19.3229 5.22493 19.5411 5.41484C19.5723 5.44197 19.6022 5.47065 19.6307 5.50078C19.8591 5.74178 20 6.07511 20 6.44444V14L19.9999 14.0175V14.4444C19.9999 15.1512 19.479 15.7295 18.8204 15.7749H5.17954C4.5209 15.7295 4 15.1512 4 14.4444V6.44444C4 5.70578 4.56336 5.11111 5.26315 5.11111H8.63155V4.66667H7.15787C6.80798 4.66667 6.5263 4.36933 6.5263 4V2.66667ZM5.40556 6.73203C5.48764 6.56959 5.67892 6.50814 5.83281 6.59477L11.9999 10.0667L18.1671 6.59477C18.321 6.50814 18.5123 6.56959 18.5943 6.73203C18.6764 6.89446 18.6182 7.09637 18.4643 7.18301L11.9999 10.8222L5.53559 7.18301C5.38171 7.09637 5.32349 6.89446 5.40556 6.73203Z" fill="#FFF1C0"/>
<path d="M5.89971 16.7749L7.95861 20C8.17648 20.3987 8.58342 20.6667 9.0526 20.6667L10.7368 20.6667C10.7368 21.0203 10.8699 21.3594 11.1068 21.6095C11.3437 21.8595 11.6649 22 11.9999 22C12.335 22 12.6562 21.8595 12.8931 21.6095C13.13 21.3594 13.2631 21.0203 13.2631 20.6667L14.9473 20.6667C15.4164 20.6667 15.8234 20.3987 16.0413 20H16.0425L18.1005 16.7749H5.89971Z" fill="#FFF1C0"/>
</svg>

<svg xmlns="http://www.w3.org/2000/svg" viewBox="0 0 24 24"><path fill-rule="evenodd" d="M5.9 16.775 7.959 20a1.25 1.25 0 0 0 1.094.667h1.684c0 .353.133.692.37.942S11.665 22 12 22s.656-.14.893-.39.37-.59.37-.943h1.684c.47 0 .876-.268 1.094-.667h.002l2.058-3.225H5.9zm.626-14.108c0-.37.282-.667.632-.667h2.526a.612.612 0 0 1 .447.195c.114.12.185.287.185.472V4c0 .37-.282.667-.632.667h-.21v.444h5.052v-.444h-.21c-.35 0-.632-.298-.632-.667V2.667c0-.37.282-.667.632-.667h2.526a.61.61 0 0 1 .447.195c.114.12.185.287.185.472V4c0 .37-.282.667-.632.667h-1.473v.444h3.368a1.22 1.22 0 0 1 .894.39c.228.24.369.574.369.943v8c0 .707-.521 1.285-1.18 1.33H5.18C4.52 15.73 4 15.152 4 14.445v-8c0-.738.563-1.333 1.263-1.333h3.369v-.444H7.158c-.35 0-.632-.298-.632-.667V2.667m-1.12 4.065a.308.308 0 0 1 .427-.137L12 10.067l6.167-3.472a.308.308 0 0 1 .427.137.343.343 0 0 1-.13.451L12 10.823l-6.464-3.64a.343.343 0 0 1-.13-.451"/></svg>
